X:80
T:Penny Hill
C:Hector MacKenzie
R:jig
L:1/8
M:6/8
K:Em
"Em"E2 e dBA|"Em"BEF "D"G2 F|"Em"E2 e dBA|"D"dAG "Bm"FED|
"Em"E2 e dBA|"Em"BEF "D"G2 F|"Em"Eee e2 f|1"D"edB "Bm"AFD:|2"Bm"edB dea||
|:"Em"b2 e efe|"Em"bef "D"g3 |"Em"b2 e efe|"D"fag "Bm"fga|
"Em"b2 e efe|"Em"bef "D"g3|"Em"bef edB|"D"dAG "Bm"FED:|"Em (last time)"E6|]
